static/img/in-field/inputs-disabled.svg

<svg width="468" height="56" viewBox="0 0 468 56" fill="none" xmlns="http://www.w3.org/2000/svg">
<rect x="1" y="1" width="466" height="54" rx="3" fill="#fff"/>
<path d="M22.9717 37H21.1348V22.9062H16.1934V21.2949H27.8916V22.9062H22.9717V37ZM34.7803 25.0117C35.7829 25.0117 36.6423 25.2337 37.3584 25.6777C38.0745 26.1217 38.6224 26.7448 39.002 27.5469C39.3815 28.3418 39.5713 29.2728 39.5713 30.3398V31.4463H31.4395C31.4609 32.8285 31.8047 33.8812 32.4707 34.6045C33.1367 35.3278 34.0749 35.6895 35.2852 35.6895C36.0299 35.6895 36.6888 35.6214 37.2617 35.4854C37.8346 35.3493 38.429 35.1488 39.0449 34.8838V36.4521C38.4505 36.7171 37.8597 36.9105 37.2725 37.0322C36.6924 37.154 36.0049 37.2148 35.21 37.2148C34.0785 37.2148 33.0902 36.9857 32.2451 36.5273C31.4072 36.0618 30.7555 35.3815 30.29 34.4863C29.8245 33.5911 29.5918 32.4954 29.5918 31.1992C29.5918 29.9316 29.8031 28.8359 30.2256 27.9121C30.6553 26.9811 31.2568 26.265 32.0303 25.7637C32.8109 25.2624 33.7275 25.0117 34.7803 25.0117ZM34.7588 26.4727C33.8063 26.4727 33.0472 26.7842 32.4814 27.4072C31.9157 28.0303 31.5791 28.9004 31.4717 30.0176H37.7021C37.695 29.3158 37.584 28.6999 37.3691 28.1699C37.1615 27.6328 36.8428 27.2174 36.4131 26.9238C35.9834 26.623 35.432 26.4727 34.7588 26.4727ZM45.6543 30.9736L41.583 25.2266H43.624L46.7285 29.7598L49.8223 25.2266H51.8418L47.7705 30.9736L52.0674 37H50.0264L46.7285 32.1982L43.4092 37H41.3896L45.6543 30.9736ZM58.4189 35.7539C58.7126 35.7539 59.0133 35.7288 59.3213 35.6787C59.6292 35.6286 59.8799 35.5677 60.0732 35.4961V36.8818C59.8656 36.9749 59.5755 37.0537 59.2031 37.1182C58.8379 37.1826 58.4798 37.2148 58.1289 37.2148C57.5059 37.2148 56.9401 37.1074 56.4316 36.8926C55.9232 36.6706 55.515 36.2982 55.207 35.7754C54.9062 35.2526 54.7559 34.5293 54.7559 33.6055V26.623H53.0801V25.7529L54.7666 25.0547L55.4756 22.498H56.5498V25.2266H59.998V26.623H56.5498V33.5518C56.5498 34.2894 56.7181 34.8408 57.0547 35.2061C57.3984 35.5713 57.8532 35.7539 58.4189 35.7539ZM68.9414 37V21.2949H70.7676V37H68.9414ZM80.6426 25.0117C82.0391 25.0117 83.0954 25.3555 83.8115 26.043C84.5277 26.7233 84.8857 27.819 84.8857 29.3301V37H83.124V29.4482C83.124 28.4671 82.8984 27.7331 82.4473 27.2461C82.0033 26.7591 81.3193 26.5156 80.3955 26.5156C79.0921 26.5156 78.1755 26.8844 77.6455 27.6221C77.1156 28.3597 76.8506 29.4303 76.8506 30.834V37H75.0674V25.2266H76.5068L76.7754 26.9238H76.8721C77.1227 26.5085 77.4414 26.1611 77.8281 25.8818C78.2148 25.5954 78.6481 25.3805 79.1279 25.2373C79.6077 25.0869 80.1126 25.0117 80.6426 25.0117ZM94.3418 25.0117C95.8099 25.0117 96.9808 25.5166 97.8545 26.5264C98.7282 27.5361 99.165 29.0544 99.165 31.0811C99.165 32.4202 98.9645 33.5446 98.5635 34.4541C98.1624 35.3636 97.5967 36.0511 96.8662 36.5166C96.1429 36.9821 95.2871 37.2148 94.2988 37.2148C93.6758 37.2148 93.1279 37.1325 92.6553 36.9678C92.1826 36.8031 91.778 36.5811 91.4414 36.3018C91.1048 36.0225 90.8255 35.7181 90.6035 35.3887H90.4746C90.4961 35.668 90.5212 36.0046 90.5498 36.3984C90.5856 36.7923 90.6035 37.1361 90.6035 37.4297V42.2637H88.8096V25.2266H90.2812L90.5176 26.9668H90.6035C90.8327 26.6087 91.112 26.2829 91.4414 25.9893C91.7708 25.6885 92.1719 25.4521 92.6445 25.2803C93.1243 25.1012 93.6901 25.0117 94.3418 25.0117ZM94.0303 26.5156C93.2139 26.5156 92.555 26.6732 92.0537 26.9883C91.5596 27.3034 91.1979 27.776 90.9688 28.4062C90.7396 29.0293 90.6178 29.8135 90.6035 30.7588V31.1025C90.6035 32.098 90.7109 32.9395 90.9258 33.627C91.1478 34.3145 91.5094 34.8372 92.0107 35.1953C92.5192 35.5534 93.1995 35.7324 94.0518 35.7324C94.7822 35.7324 95.391 35.5355 95.8779 35.1416C96.3649 34.7477 96.7266 34.1999 96.9629 33.498C97.2064 32.7891 97.3281 31.9762 97.3281 31.0596C97.3281 29.6702 97.056 28.5674 96.5117 27.751C95.9746 26.9274 95.1475 26.5156 94.0303 26.5156ZM112.252 25.2266V37H110.791L110.533 35.3457H110.437C110.193 35.7539 109.878 36.0977 109.491 36.377C109.104 36.6562 108.668 36.8639 108.181 37C107.701 37.1432 107.189 37.2148 106.645 37.2148C105.714 37.2148 104.933 37.0645 104.303 36.7637C103.673 36.4629 103.196 35.9974 102.874 35.3672C102.559 34.737 102.401 33.9277 102.401 32.9395V25.2266H104.206V32.8105C104.206 33.7917 104.428 34.5257 104.872 35.0127C105.316 35.4925 105.993 35.7324 106.902 35.7324C107.776 35.7324 108.471 35.5677 108.986 35.2383C109.509 34.9089 109.885 34.4255 110.114 33.7881C110.343 33.1436 110.458 32.3558 110.458 31.4248V25.2266H112.252ZM120.075 35.7539C120.369 35.7539 120.67 35.7288 120.978 35.6787C121.285 35.6286 121.536 35.5677 121.729 35.4961V36.8818C121.522 36.9749 121.232 37.0537 120.859 37.1182C120.494 37.1826 120.136 37.2148 119.785 37.2148C119.162 37.2148 118.596 37.1074 118.088 36.8926C117.579 36.6706 117.171 36.2982 116.863 35.7754C116.562 35.2526 116.412 34.5293 116.412 33.6055V26.623H114.736V25.7529L116.423 25.0547L117.132 22.498H118.206V25.2266H121.654V26.623H118.206V33.5518C118.206 34.2894 118.374 34.8408 118.711 35.2061C119.055 35.5713 119.509 35.7539 120.075 35.7539Z" fill="#B7B9C3"/>
<rect x="1" y="1" width="466" height="54" rx="3" stroke="#B7B9C3" stroke-width="2"/>
</svg>

<svg width="468" height="56" fill="none" xmlns="http://www.w3.org/2000/svg"><rect x="1" y="1" width="466" height="54" rx="3" fill="#fff"/><path d="M22.972 37h-1.837V22.906h-4.942v-1.611h11.699v1.611h-4.92V37zM34.78 25.012c1.003 0 1.862.222 2.578.666.717.444 1.264 1.067 1.644 1.869.38.795.57 1.726.57 2.793v1.106h-8.133c.022 1.382.366 2.435 1.032 3.159.666.723 1.604 1.085 2.814 1.085.745 0 1.404-.069 1.977-.205a10.9 10.9 0 001.783-.601v1.568a8.676 8.676 0 01-1.773.58c-.58.122-1.267.183-2.062.183-1.132 0-2.12-.23-2.965-.688-.838-.465-1.49-1.145-1.955-2.04-.465-.896-.698-1.992-.698-3.288 0-1.267.211-2.363.634-3.287.43-.93 1.03-1.647 1.804-2.148.78-.502 1.697-.752 2.75-.752zm-.021 1.46c-.953 0-1.712.312-2.278.935-.565.623-.902 1.493-1.01 2.61h6.231c-.007-.701-.118-1.317-.333-1.847-.208-.537-.526-.953-.956-1.246-.43-.301-.981-.451-1.654-.451zm10.895 4.502l-4.071-5.747h2.041l3.104 4.533 3.094-4.533h2.02l-4.072 5.747L52.067 37h-2.04l-3.299-4.802L43.41 37h-2.02l4.265-6.026zm12.765 4.78c.294 0 .594-.025.902-.075.308-.05.559-.111.752-.183v1.386c-.207.093-.498.172-.87.236a6.179 6.179 0 01-1.074.097 4.32 4.32 0 01-1.697-.322c-.509-.222-.917-.595-1.225-1.118-.3-.522-.451-1.246-.451-2.17v-6.982H53.08v-.87l1.687-.698.709-2.557h1.074v2.729h3.448v1.396H56.55v6.929c0 .737.168 1.289.505 1.654.343.365.798.548 1.364.548zM68.94 37V21.295h1.827V37H68.94zm11.702-11.988c1.396 0 2.452.343 3.168 1.031.717.68 1.075 1.776 1.075 3.287V37h-1.762v-7.552c0-.98-.226-1.715-.677-2.202-.444-.487-1.128-.73-2.052-.73-1.303 0-2.22.368-2.75 1.106-.53.738-.794 1.808-.794 3.212V37h-1.784V25.227h1.44l.268 1.697h.097c.25-.415.57-.763.956-1.042.387-.287.82-.502 1.3-.645.48-.15.985-.225 1.515-.225zm13.699 0c1.468 0 2.639.505 3.513 1.514.873 1.01 1.31 2.528 1.31 4.555 0 1.34-.2 2.464-.602 3.373-.4.91-.966 1.597-1.697 2.063-.723.465-1.579.698-2.567.698-.623 0-1.171-.083-1.644-.247a3.878 3.878 0 01-1.214-.666 4.347 4.347 0 01-.838-.913h-.128l.075 1.01c.036.393.053.737.053 1.03v4.835H88.81V25.227h1.471l.237 1.74h.085c.23-.358.509-.684.838-.978.33-.3.73-.537 1.203-.709.48-.179 1.046-.268 1.698-.268zm-.312 1.504c-.816 0-1.475.157-1.976.472-.494.315-.856.788-1.085 1.418-.23.623-.351 1.408-.365 2.353v.343c0 .996.107 1.838.322 2.525.222.688.583 1.21 1.085 1.568.508.358 1.189.537 2.04.537.731 0 1.34-.197 1.827-.59.487-.394.849-.942 1.085-1.644.243-.709.365-1.522.365-2.438 0-1.39-.272-2.493-.816-3.309-.537-.824-1.365-1.235-2.482-1.235zm18.222-1.29V37h-1.461l-.258-1.654h-.096a3.427 3.427 0 01-.946 1.031c-.387.28-.823.487-1.31.623-.48.143-.992.215-1.536.215-.931 0-1.712-.15-2.342-.451a3.036 3.036 0 01-1.429-1.397c-.315-.63-.473-1.44-.473-2.427v-7.713h1.805v7.583c0 .982.222 1.716.666 2.203.444.48 1.121.72 2.03.72.874 0 1.569-.165 2.084-.495.523-.33.899-.813 1.128-1.45.229-.644.344-1.432.344-2.363v-6.198h1.794zm7.823 10.528c.294 0 .595-.025.903-.075.307-.05.558-.111.751-.183v1.386c-.207.093-.497.172-.87.236a6.174 6.174 0 01-1.074.097 4.317 4.317 0 01-1.697-.322c-.509-.222-.917-.595-1.225-1.118-.301-.522-.451-1.246-.451-2.17v-6.982h-1.676v-.87l1.687-.698.709-2.557h1.074v2.729h3.448v1.396h-3.448v6.929c0 .737.168 1.289.505 1.654.344.365.798.548 1.364.548z" fill="#B7B9C3"/><rect x="1" y="1" width="466" height="54" rx="3" stroke="#B7B9C3" stroke-width="2"/></svg>
